X:65
T: Polska after Bagg Lars Johansson 
R:hambo
Z: Transcribed to abc by Mary Lou Knack
M:3/4
K:G
"G"B>c d>B G>B| "D"A>B c>A F2| f>e d>c B>A| "G"B>c d>B G2|
"G"B>c d>B G>B| "D"A>B c>A F2| f>e d>c B>A| "G"G2 G4:|
\
|: "C"g>f e3 g| "D"f>e "G"d4| "D"f>e d>c B>A| "G"B>c d>B G2|
   "C"g>f e3 g| "D"f>e "G"d4| "D"f>e d>c B>A| "G"G2 G4:|
%%vskip 10pt
P: second fiddle
G>A B>G D>G| F>G A>F D2| d>c B>A G>F| G>A B>G D2|
G>A B>G D>G| F>G A>F D2| d>c B>A G>E| D2 [B,4D4]:|
\
|: e>d c3 e| d>c B4| d>c B>A G>F| G>A B>G D2|
   e>d c3 e| d>c B4| d>c B>A G>E| D2 [B,4D4]:|
